src/icons/asset-management/squirrel.svg

<svg xmlns="http://www.w3.org/2000/svg" width="55" height="52" fill="none" viewBox="0 0 55 52">
  <path fill="#00274C" d="M12.9126 25.0508v-.0114c-.2349-.2425-.4796-.4533-.7481-.5963-1.6011-.6051-4.44132 2.7748-10.59282.6486-.49022-.1699-.923298-.7249-.945898-1.2381-.155165-3.555.960818-3.9417 1.753648-5.6203 1.55208-3.2931 3.7981-5.3484 5.39493-5.857 3.59644-1.2267 2.83724-5.90079 4.45664-5.67981.8935.12103 1.6749 1.66865 2.2452 5.53511 2.0324 1.0834 2.9817 2.2658 3.7644 3.724.5358.9834 1.8432 1.9786 2.9374 2.2434 6.1942 1.495 10.8861 5.7355 14.4111 12.1039 1.0627 2.4584 4.0448 10.3826 1.1163 16.0236-.0959.1864-.0226.4137.1659.5086.0554.0291.1155.0422.1743.0422.1385 0 .272-.0751.3406-.2054 3.5278-6.7973-.8905-16.2968-1.4126-17.372-1.2498-6.2445-7.7799-9.0792-7.7799-16.6034C28.1937 5.02797 34.4709 0 41.3509 0c6.892 0 12.0638 4.79512 12.0638 4.79512s-3.5525.66332-3.5525 5.54748C49.8617 17.7248 55 19.0953 55 31.1281 55 43.1618 45.3049 52 31.6101 52H11.1807c0-2.5416 1.128-3.2373 4.1775-3.2922-3.7393-5.6789-3.3049-9.9183-.104-13.1855 1.3815-.897 7.5372-4.4042 13.3001.0776.1667.1286.4063.1003.5359-.0641.1308-.1641.1014-.4015-.0644-.5301-6.4503-5.0135-13.5184-.5659-14.4078.0316-7.32122.4221-11.90339-6.9095-13.62757-3.495-.168806.3336-.665418.2859-.762605-.0742C-1.83442 23.7885 10.7244 32.7476 12.9115 25.0503l.0011.0005Zm-6.39323-8.3116c-.6296 0-1.14026.5052-1.14026 1.1289 0 .6232.51068 1.1293 1.14026 1.1293.63045 0 1.14156-.5052 1.14156-1.1293 0-.6237-.5111-1.1289-1.14156-1.1289Z"/>
</svg>

<svg width="55" height="52" viewBox="0 0 55 52" fill="none" xmlns="http://www.w3.org/2000/svg">
<path d="M12.9126 25.0508V25.0394C12.6777 24.7969 12.433 24.5861 12.1645 24.4431C10.5634 23.838 7.72318 27.2179 1.57168 25.0917C1.08146 24.9218 0.648382 24.3668 0.625782 23.8536C0.470617 20.2986 1.5866 19.9119 2.37943 18.2333C3.93151 14.9402 6.17753 12.8849 7.77436 12.3763C11.3708 11.1496 10.6116 6.47551 12.231 6.69649C13.1245 6.81752 13.9059 8.36514 14.4762 12.2316C16.5086 13.315 17.4579 14.4974 18.2406 15.9556C18.7764 16.939 20.0838 17.9342 21.178 18.199C27.3722 19.694 32.0641 23.9345 35.5891 30.3029C36.6518 32.7613 39.6339 40.6855 36.7054 46.3265C36.6095 46.5129 36.6828 46.7402 36.8713 46.8351C36.9267 46.8642 36.9868 46.8773 37.0456 46.8773C37.1841 46.8773 37.3176 46.8022 37.3862 46.6719C40.914 39.8746 36.4957 30.3751 35.9736 29.2999C34.7238 23.0554 28.1937 20.2207 28.1937 12.6965C28.1937 5.02797 34.4709 0 41.3509 0C48.2429 0 53.4147 4.79512 53.4147 4.79512C53.4147 4.79512 49.8622 5.45844 49.8622 10.3426C49.8617 17.7248 55 19.0953 55 31.1281C55 43.1618 45.3049 52 31.6101 52H11.1807C11.1807 49.4584 12.3087 48.7627 15.3582 48.7078C11.6189 43.0289 12.0533 38.7895 15.2542 35.5223C16.6357 34.6253 22.7914 31.1181 28.5543 35.5999C28.721 35.7285 28.9606 35.7002 29.0902 35.5358C29.221 35.3717 29.1916 35.1343 29.0258 35.0057C22.5755 29.9922 15.5074 34.4398 14.618 35.0373C7.29678 35.4594 2.71461 28.1278 0.99043 31.5423C0.821624 31.8759 0.325012 31.8282 0.227825 31.4681C-1.83442 23.7885 10.7244 32.7476 12.9115 25.0503L12.9126 25.0508ZM6.51937 16.7392C5.88977 16.7392 5.37911 17.2444 5.37911 17.8681C5.37911 18.4913 5.88979 18.9974 6.51937 18.9974C7.14982 18.9974 7.66093 18.4922 7.66093 17.8681C7.66093 17.2444 7.14983 16.7392 6.51937 16.7392Z" fill="#00274C"/>
</svg>
